!!!COM: Mozart, Wolfgang Amadeus
!!!OPR: Quartet in A Major
!!!OTL:
!!!OMV: 1
!!!SCT: K 169
!!!SCA: Chronologisch-thematisches Verzeichnis sämtlicher Tonwerke Wolfgang Amade Mozarts (L. von Köchel; 1862, 2/1905, 3/1937, 1947)
!!!YOR: Breitkopf & Härtel Edition
!!!EED: Frances Bennion
!!!ENC: Frances Bennion
!!!CDT: 1756/1/27/-1791/12/5/
!!!OCY: Österreich
!!!YEC: Copyright (c) 1994, 2000 Center for Computer Assisted Research in the Humanities
!!!YEM: Rights to all derivative editions reserved.
!!!YEM: Refer to licensing agreement for further details.
!!!YEN: United States of America
**kern	**kern	**kern	**kern
*k[f#c#g#]	*k[f#c#g#]	*k[f#c#g#]	*k[f#c#g#]
*A:	*A:	*A:	*A:
*clefG	*clefG	*clefF	*clefC
*M3/4	*M3/4	*M3/4	*M3/4
*tb32	*tb32	*tb32	*tb32
=1	=1	=1	=1
2ee	2cc#	8A	8A
.	.	8A	8A
.	.	8A	8A
.	.	8A	8A
4cc#	4e	8A	8A
.	.	8A	8A
=2	=2	=2	=2
4a	4c#	8A	8A
.	.	8A	8A
4.aa	4.f#	8A	8A
.	.	8A	8A
.	.	8A	8A
16gg#	16e	8A	8A
16ff#	16d	.	.
=3	=3	=3	=3
8ee	8c#	4A	4A
16dd	16B	.	.
16cc#	16A	.	.
4cc#	4A	8r	8r
.	.	8cc#	8A
4r	4r	8a	8E
.	.	8e	8C#
=4	=4	=4	=4
16a	4e	4c#	4AA
16b	.	.	.
16cc#	.	.	.
16dd	.	.	.
16cc#	2r	2r	2r
16dd	.	.	.
16ee	.	.	.
16ff#	.	.	.
16ee	.	.	.
16ff#	.	.	.
16gg#	.	.	.
16aa	.	.	.
=5	=5	=5	=5
8aa	16f#	8A	8D
.	16g#	.	.
8b	16a	8A	8D
.	16g#	.	.
[2b	16f#	8A	8D
.	16e	.	.
.	16d	8A	8D
.	16c#	.	.
.	16d	8F#	8D
.	16c#	.	.
.	16B	8F#	8D
.	16A	.	.
=6	=6	=6	=6
8b]	8G#	4E	4E
8b	8G#	.	.
8cc#	8A	2r	2r
8cc#	8A	.	.
8dd	8B	.	.
8dd	8B	.	.
=7	=7	=7	=7
4b#	4G#	8r	8r
.	.	8f#	8F#
4cc#	4A	8F#	8FF#
.	.	8a	8F#
4r	4r	8g#	8E
.	.	8f#	8D
=8	=8	=8	=8
16a	2.r	4e	4C#
16b	.	.	.
16cc#	.	.	.
16dd	.	.	.
16cc#	.	2r	2r
16dd	.	.	.
16ee	.	.	.
16ff#	.	.	.
16ee	.	.	.
16ff#	.	.	.
16gg#	.	.	.
16aa	.	.	.
=9	=9	=9	=9
8aa	16f#	8A	8D
.	16g#	.	.
8b	16a	8A	8D
.	16g#	.	.
[2b	16f#	8A	8D
.	16e	.	.
.	16d	8A	8D
.	16c#	.	.
.	16d	8F#	8D
.	16c#	.	.
.	16B	8F#	8D
.	16A	.	.
=10	=10	=10	=10
8b]	8G#	8E	8E
4ddd	4b	8E	8E
.	.	8E	8E
8bb	8g#	8E	8E
8gg#	8e	8E	8E
8dd	8b	8g#	8E
=11	=11	=11	=11
8cc#	8a	4a	4A
16b	16g#	.	.
16a	16a	.	.
4a	4e 4c#	4A	4AA
4r	4r	4r	4r
=12	=12	=12	=12
2B	4G#	4E	2.r
.	2r	2r	.
4e	.	.	.
=13	=13	=13	=13
8e	4r	4r	2.r
8d#	.	.	.
[2d#	4A	4F#	.
.	4A	4F#	.
=14	=14	=14	=14
8d#]	4A	4F#	2.r
8e	.	.	.
8f#	2r	2r	.
8a	.	.	.
8g#	.	.	.
8f#	.	.	.
=15	=15	=15	=15
2f#	4r	4r	2.r
.	4B	4G#	.
4e	4B	4G#	.
=16	=16	=16	=16
8r	8r	2.B	2.GG#
8ee	8e	.	.
8dd#	8d#	.	.
8ee	8e	.	.
8ff#	8f#	.	.
8ee	8e	.	.
=17	=17	=17	=17
8dd#	8d#	2.E	2AA
8cc#	8c#	.	.
4.cc#	4.c#	.	.
.	.	.	4GG#
8b	8B	.	.
=18	=18	=18	=18
4b	4B	4D#	4FF#
4a	4f#	4B	4DD#
4g#	4e	4B	4EE
=19	=19	=19	=19
4f#	16d#	4B	4BB
.	16B	.	.
.	16A#	.	.
.	16B	.	.
2r	16c#	2r	2r
.	16B	.	.
.	16A#	.	.
.	16B	.	.
.	16c#	.	.
.	16B	.	.
.	16A#	.	.
.	16B	.	.
=20	=20	=20	=20
4.aa	16c#	4.d#	2.r
.	16B	.	.
.	16A#	.	.
.	16B	.	.
.	16c#	.	.
.	16B	.	.
16ff#	16A#	8d#	.
16aa	16B	.	.
8gg#	16c#	8e	.
.	16B	.	.
16ff#	16A#	16f#	.
16ee	16B	16g#	.
=21	=21	=21	=21
8dd#	16c#	8f#	4.A
.	16B	.	.
4dd#	16A#	4f#	.
.	16B	.	.
.	16c#	.	.
.	16B	.	.
4dd#	16A#	4f#	16G#
.	16B	.	16A
.	16c#	.	8A
.	16B	.	.
8dd#	16A#	8f#	16G#
.	16B	.	16F#
=22	=22	=22	=22
16ee	4B	16g#	4E
16b	.	16g#	.
16cc#	.	16a	.
16dd#	.	16f#	.
16ee	2r	16g#	4EE
16ff#	.	16d#	.
16gg#	.	16e	.
16aa	.	16f#	.
4bb	.	4g#	4r
=23	=23	=23	=23
4.aa	16c#	4.d#	2.r
.	16B	.	.
.	16A#	.	.
.	16B	.	.
.	16c#	.	.
.	16B	.	.
16ff#	16A#	8d#	.
16aa	16B	.	.
8gg#	16c#	8e	.
.	16B	.	.
16ff#	16A#	16f#	.
16ee	16B	16g#	.
=24	=24	=24	=24
8dd#	16c#	8f#	4.A
.	16B	.	.
4dd#	16A#	4f#	.
.	16B	.	.
.	16c#	.	.
.	16B	.	.
4dd#	16A#	4f#	16G#
.	16B	.	16A
.	16c#	.	8A
.	16B	.	.
8dd#	16A#	8f#	16G#
.	16B	.	16F#
=25	=25	=25	=25
16ee	4B	16g#	4E
16b	.	16g#	.
16cc#	.	16a	.
16dd#	.	16f#	.
16ee	2r	16g#	2r
16ff#	.	16d#	.
16gg#	.	16e	.
16aa	.	16f#	.
4bb	.	4g#	.
=26	=26	=26	=26
8r	4ee 4b 4e	4r	4.e
16gg#	.	.	.
16ee	.	.	.
8ccc#	4.r	4g#	.
8bb	.	.	8e
8aa#	.	4f#	8e
8bb	16dd#	.	8d#
.	16b	.	.
=27	=27	=27	=27
8r	8ee	4r	4.c#
16ee	8e	.	.
16cc#	.	.	.
8aa	4.r	4e	.
8gg#	.	.	8c#
8ff##	.	4d#	8c#
8gg#	16b	.	8B
.	16g#	.	.
=28	=28	=28	=28
8r	8cc#	4r	4.A
16cc#	8c#	.	.
16a	.	.	.
8ff#	4.r	4c#	.
8ee	.	.	8A
8dd#	.	4B	8A
8ee	16g#	.	8G#
.	16e	.	.
=29	=29	=29	=29
8.cc#	8ee	8r	4A
.	16cc#	8c#	.
16ff#	16a	.	.
4ee	4g#	4B	4B
4dd#	4f#	4A	4BB
=30	=30	=30	=30
8.ee	4r	4r	2.r
16dd#	.	.	.
8cc#	8g#	8e	.
8r	8r	8r	.
8b	8f#	8d#	.
8r	8r	8r	.
=31	=31	=31	=31
8.cc#	4r	4r	2.r
16b	.	.	.
8a	8e	8c#	.
8r	8r	8r	.
8g#	8d#	8B	.
8r	8r	8r	.
=32	=32	=32	=32
8.a	4r	4r	2.r
16g#	.	.	.
8f#	8c#	8A	.
8r	8r	8r	.
8e	8B	8G#	.
8r	8r	8r	.
=33	=33	=33	=33
8.c#	4c#	4A	4AA
16f#	.	.	.
4e	4B	4G#	2BB
4d#	4A	4F#	.
=34	=34	=34	=34
16e	4G#	4E	4EE
16g#	.	.	.
16b	.	.	.
16ee	.	.	.
16gg#	4r	4r	8E
16ee	.	.	.
16bb	.	.	8G#
16gg#	.	.	.
16aa	4a	4f#	8B
16ff#	.	.	.
16ee	.	.	8BB
16dd#	.	.	.
=35	=35	=35	=35
16ee	4g#	4e	4EE
16b	.	.	.
16ee	.	.	.
16gg#	.	.	.
16bb	4r	4r	8E
16gg#	.	.	.
16bb	.	.	8G#
16gg#	.	.	.
16aa	4a	4f#	8B
16ff#	.	.	.
16ee	.	.	8BB
16dd#	.	.	.
=36	=36	=36	=36
4ee	4g#	4e	4E
4gg# 4b 4e	4ee 4b 4e	4e	4EE
4r	4r	4r	4r
=37	=37	=37	=37
8.e	2.r	2.r	2.r
16f#	.	.	.
4g#	.	.	.
4g#	.	.	.
=38	=38	=38	=38
8.f#	2.r	2.r	2.r
16g#	.	.	.
4a	.	.	.
4a	.	.	.
=39	=39	=39	=39
4g#	8.e	2.r	2.r
.	16f#	.	.
4b	4g#	.	.
[4ee	4g#	.	.
=40	=40	=40	=40
4ee]	8.f#	2.r	2.r
.	16g#	.	.
4dd#	4a	.	.
4r	4a	.	.
=41	=41	=41	=41
4b	8.g#	2.r	2.r
.	16a	.	.
4ee	4b	.	.
[4gg#	4b	.	.
=42	=42	=42	=42
4gg#]	8.a	2.r	2.r
.	16b	.	.
4ff#	4cc#	.	.
4ee	4cc#	.	.
=43	=43	=43	=43
2dd#	4b	2.r	2.r
.	4a	.	.
4ee	4g#	.	.
=44	=44	=44	=44
8.a	4f#	2.r	2.r
32b	.	.	.
32cc#	.	.	.
4b	2d#	.	.
4a	.	.	.
=45	=45	=45	=45
8g#	4e	2.r	2.r
4b	.	.	.
.	2e#	.	.
8dd	.	.	.
8cc#	.	.	.
8b	.	.	.
=46	=46	=46	=46
4a	4f#	2.r	8.F#
.	.	.	16G#
2r	2r	.	4A
.	.	.	4A
=47	=47	=47	=47
2.r	2.r	2.r	8.G#
.	.	.	16A
.	.	.	4B
.	.	.	4B
=48	=48	=48	=48
2.r	2.r	8.f#	4A
.	.	16g#	.
.	.	4a	4c#
.	.	4a	[4F#
=49	=49	=49	=49
2.r	2.r	8.g#	4F#]
.	.	16a	.
.	.	4b	4E#
.	.	4b	4r
=50	=50	=50	=50
8.aa	2.r	4a	2.F#
16gg	.	.	.
4ff#	.	4dd	.
4ff#	.	[4d	.
=51	=51	=51	=51
8.gg	2.r	4d]	2.E
16ff#	.	.	.
4ee	.	4c#	.
4ee	.	4r	.
=52	=52	=52	=52
8.ff#	8.a	4r	2.D
16ee	16g	.	.
4dd	4f#	8.a	.
.	.	16f#	.
4dd	4f#	4d	.
=53	=53	=53	=53
8.ee	8.g	4c#	2.AA
16dd	16f#	.	.
4cc#	4e	8.A	.
.	.	16e	.
4cc#	4e	4g	.
=54	=54	=54	=54
8.dd	4d	8.f#	2.D
16ee	.	16e	.
4ff#	2r	4d	.
4ff#	.	4d	.
=55	=55	=55	=55
8.ff#	8.a	2.c#	2.C#
16gg#	16g#	.	.
4aa	4f#	.	.
4aa	4f#	.	.
=56	=56	=56	=56
8.aa	8.f#	2.d#	2.BB#
16gg#	16g#	.	.
4ff#	4a	.	.
4a	4f#	.	.
=57	=57	=57	=57
8.a	8.f#	4c#	4C#
32g#	32e#	.	.
32a	32f#	.	.
4g#	4e#	4c#	4C#
4r	4r	4r	4r
=58	=58	=58	=58
2cc#	2a	8F#	8F#
.	.	8F#	8F#
.	.	8F#	8F#
.	.	8F#	8F#
4a	4c#	8F#	8F#
.	.	8F#	8F#
=59	=59	=59	=59
4f#	4A	8F#	8F#
.	.	8F#	8F#
4.ff#	4.dd	8F#	8F#
.	.	8F#	8F#
.	.	8F#	8F#
16ee	16cc#	8F#	8F#
16dd	16b	.	.
=60	=60	=60	=60
8cc#	8a	4F#	4F#
16b	16g#	.	.
16a	16f#	.	.
4a	4f#	8r	8r
.	.	8a	8F#
4r	4r	8f#	8C#
.	.	8c#	8AA
=61	=61	=61	=61
16f#	4c#	4A	4FF#
16g#	.	.	.
16a	.	.	.
16b	.	.	.
16a	2r	2r	2r
16b	.	.	.
16cc#	.	.	.
16dd	.	.	.
16cc#	.	.	.
16dd	.	.	.
16ee#	.	.	.
16ff#	.	.	.
=62	=62	=62	=62
8ff#	16G#	8d	8BB
.	16A	.	.
8g#	16B	8d	8BB
.	16A	.	.
[2g#	16B	8d	8BB
.	16c#	.	.
.	16d	8f#	8BB
.	16c#	.	.
.	16d	8f#	8BB
.	16e	.	.
.	16d	8f#	8BB
.	16c#	.	.
=63	=63	=63	=63
8g#]	8B	4e#	4C#
8g#	8e#	.	.
8a	8f#	2r	2r
8a	8f#	.	.
8b	8g#	.	.
8b	8g#	.	.
=64	=64	=64	=64
4b	4g#	8r	8r
.	.	8e#	8C#
4a	4f#	8f#	8D
.	.	8a	8F#
4r	4r	8f#	8D
.	.	8d	8AA
=65	=65	=65	=65
16dd	4a 4d	4A	4FF#
16ee	.	.	.
16ff#	.	.	.
16gg	.	.	.
16ff#	2r	2r	2r
16gg	.	.	.
16aa	.	.	.
16bb	.	.	.
16aa	.	.	.
16bb	.	.	.
16ccc#	.	.	.
16ddd	.	.	.
=66	=66	=66	=66
8ddd	16b	8d	8GG
.	16cc#	.	.
8ee	16dd	8d	8GG
.	16cc#	.	.
2ee	16b	8d	8GG
.	16a	.	.
.	16g	8d	8GG
.	16f#	.	.
.	16g	8B	8GG
.	16f#	.	.
.	16e	8B	8GG
.	16d	.	.
=67	=67	=67	=67
8ee	8c#	8A	8AA
4ggg	4ee	8A	8AA
.	.	8A	8AA
8eee	8cc#	8A	8AA
8ccc#	8a	8A	8AA
8gg	8ee	8cc#	8AA
=68	=68	=68	=68
8ff#	8dd	4dd	8D
16ee	16cc#	.	8D
16dd	16dd	.	.
8dd	8a 8f#	4d	8D
4ddd	16ff#	.	8D
.	16dd	.	.
.	16dd	8r	8B
.	16b	.	.
8ff#	16b	8dd	8B
.	16g#	.	.
=69	=69	=69	=69
8ee	8g#	4cc#	8c#
16dd	16f#	.	8c#
16cc#	16e	.	.
8cc#	8e	4c#	8c#
4ccc#	16ee	.	8c#
.	16cc#	.	.
.	16cc#	8r	8A
.	16a	.	.
8ee	16a	8cc#	8A
.	16f#	.	.
=70	=70	=70	=70
8dd	8f#	4b	8B
16cc#	16e	.	8B
16b	16d	.	.
8b	8d	4B	8B
4bb	16dd	.	8B
.	16b	.	.
.	16b	8r	8G#
.	16g#	.	.
8dd	16g#	8b	8G#
.	16e	.	.
=71	=71	=71	=71
8cc#	8e	8a	8A
8ee	8ee	8e	8E
8dd	8dd	8d	8D
8cc#	8cc#	8c#	8C#
8b	8b	8B	8BB
8a	8a	8A	8AA
=72	=72	=72	=72
8.g#	8.g#	8.G#	8.GG#
16f#	16f#	16F#	16FF#
4e	4e	8E	8EE
.	.	8f#	8d
4r	4r	8e	8c#
.	.	8d	8B
=73	=73	=73	=73
2ee	2a	8c#	8A
.	.	8c#	8A
.	.	8c#	8A
.	.	8c#	8A
4cc#	4e	8A	8A
.	.	8A	8A
=74	=74	=74	=74
4a	4c#	8A	8A
.	.	8A	8A
4.aa	4.f#	8A	8A
.	.	8A	8A
.	.	8A	8A
16gg#	16e	8A	8A
16ff#	16d	.	.
=75	=75	=75	=75
8ee	8c#	4A	4AA
16dd	16B	.	.
16cc#	16A	.	.
4cc#	4A	8r	8r
.	.	8cc#	8A
4r	4r	8a	8E
.	.	8e	8C#
=76	=76	=76	=76
16a	4e	4c#	4AA
16b	.	.	.
16cc#	.	.	.
16dd	.	.	.
16cc#	2r	2r	2r
16dd	.	.	.
16ee	.	.	.
16ff#	.	.	.
16ee	.	.	.
16ff#	.	.	.
16gg#	.	.	.
16aa	.	.	.
=77	=77	=77	=77
8aa	16f#	8A	8D
.	16g#	.	.
8b	16a	8A	8D
.	16g#	.	.
[2b	16f#	8A	8D
.	16e	.	.
.	16d	8A	8D
.	16c#	.	.
.	16d	8F#	8D
.	16c#	.	.
.	16B	8F#	8D
.	16A	.	.
=78	=78	=78	=78
8b]	8G#	4E	4E
8b	8G#	.	.
8cc#	8A	2r	2r
8cc#	8A	.	.
8dd	8B	.	.
8dd	8B	.	.
=79	=79	=79	=79
4b#	4G#	8r	8r
.	.	8F#	8FF#
4cc#	4A	8f#	8F#
.	.	8a	8F#
4r	4r	8g#	8E
.	.	8f#	8D
=80	=80	=80	=80
16a	2.r	4e	4C#
16b	.	.	.
16cc#	.	.	.
16dd	.	.	.
16cc#	.	2r	2r
16dd	.	.	.
16ee	.	.	.
16ff#	.	.	.
16ee	.	.	.
16ff#	.	.	.
16gg#	.	.	.
16aa	.	.	.
=81	=81	=81	=81
8aa	16a	8A	8D
.	16g#	.	.
8b	16f#	8A	8D
.	16e	.	.
[2b	16f#	8A	8D
.	16e	.	.
.	16d	8A	8D
.	16c#	.	.
.	16d	8F#	8D
.	16c#	.	.
.	16B	8F#	8D
.	16A	.	.
=82	=82	=82	=82
8b]	8G#	8E	8E
4ddd	4b	8E	8E
.	.	8E	8E
8bb	8g#	8E	8E
8gg#	8e	8E	8E
8dd	8b	8g#	8E
=83	=83	=83	=83
8cc#	8a	4a	4A
16b	16g#	.	.
16a	16a	.	.
4a	4e 4c#	4A	4AA
4r	4r	4r	4r
=84	=84	=84	=84
2A	2.r	2.r	2.r
4d	.	.	.
=85	=85	=85	=85
8d	4r	4r	2.r
8c#	.	.	.
[2c#	4G	4E	.
.	4G	4E	.
=86	=86	=86	=86
8c#]	4G	4E	2.r
8d	.	.	.
8e	2r	2r	.
8g	.	.	.
8f#	.	.	.
8e	.	.	.
=87	=87	=87	=87
2e	4r	4r	2.r
.	4A	4F#	.
4d	4A	4F#	.
=88	=88	=88	=88
2B	2.r	2.r	2.r
4e	.	.	.
=89	=89	=89	=89
8e	4r	4r	2.r
8d#	.	.	.
[2d#	4A	4F#	.
.	4A	4F#	.
=90	=90	=90	=90
8d#]	4A	4F#	2.r
8e	.	.	.
8f#	2r	2r	.
8a	.	.	.
8g#	.	.	.
8f#	.	.	.
=91	=91	=91	=91
2f#	4r	4r	2.r
.	4B	4G#	.
4e	4B	4G#	.
=92	=92	=92	=92
2e	4c#	4A	2.r
.	2r	2r	.
4a	.	.	.
=93	=93	=93	=93
8a	4r	4r	2.r
8g#	.	.	.
[2g#	4d	4B	.
.	4d	4B	.
=94	=94	=94	=94
8g#]	4d	4B	2.r
8a	.	.	.
8b	2r	2r	.
8dd	.	.	.
8cc#	.	.	.
8b	.	.	.
=95	=95	=95	=95
2b	4r	4r	2.r
.	4e	4c#	.
4a	4e	4c#	.
=96	=96	=96	=96
8r	8r	2.e	2.C#
8aa	8a	.	.
8gg#	8g#	.	.
8aa	8a	.	.
8bb	8b	.	.
8aa	8a	.	.
=97	=97	=97	=97
8gg#	8g#	2.A	2D
8ff#	8f#	.	.
4.ff#	4.f#	.	.
.	.	.	4C#
8ee	8e	.	.
=98	=98	=98	=98
4ee	4e	4G#	4AA
4dd	4d	4B	4GG#
4cc#	4c#	4A	4AA
=99	=99	=99	=99
4b	8B	4G#	4EE
.	8e	.	.
2r	16f#	2r	2r
.	16e	.	.
.	16d#	.	.
.	16e	.	.
.	16f#	.	.
.	16e	.	.
.	16d#	.	.
.	16e	.	.
=100	=100	=100	=100
4.ddd	16f#	4.g#	2.r
.	16e	.	.
.	16d#	.	.
.	16e	.	.
.	16f#	.	.
.	16e	.	.
16bb	16d#	8g#	.
16ddd	16e	.	.
8ccc#	16f#	8a	.
.	16e	.	.
16bb	16d#	16b	.
16aa	16e	16cc#	.
=101	=101	=101	=101
8gg#	16f#	8b	4.d
.	16e	.	.
4gg#	16d#	4b	.
.	16e	.	.
.	16f#	.	.
.	16e	.	.
4gg#	16d#	4b	16c#
.	16e	.	16d
.	16f#	.	8d
.	16e	.	.
8gg#	16d#	8b	16c#
.	16e	.	16B
=102	=102	=102	=102
16aa	4e	16cc#	4A
16ee	.	16cc#	.
16ff#	.	16dd	.
16gg#	.	16b	.
16aa	2r	16cc#	4AA
16bb	.	16g#	.
16ccc#	.	16a	.
16ddd	.	16b	.
4eee	.	4cc#	4r
=103	=103	=103	=103
4.dd	16f#	4.G#	2.r
.	16e	.	.
.	16d#	.	.
.	16e	.	.
.	16f#	.	.
.	16e	.	.
16b	16d#	8G#	.
16dd	16e	.	.
8cc#	16f#	8A	.
.	16e	.	.
16b	16d#	16B	.
16a	16e	16c#	.
=104	=104	=104	=104
8g#	16f#	8B	4.D
.	16e	.	.
4g#	16d#	4B	.
.	16e	.	.
.	16f#	.	.
.	16e	.	.
4g#	16d#	4B	16C#
.	16e	.	16D
.	16f#	.	8D
.	16e	.	.
8g#	16d#	8B	16C#
.	16e	.	16BB
=105	=105	=105	=105
16a	4e	16c#	4AA
16e	.	16c#	.
16f#	.	16d	.
16g#	.	16B	.
16a	2r	16c#	2r
16b	.	16G#	.
16cc#	.	16A	.
16dd	.	16B	.
4ee	.	4c#	.
=106	=106	=106	=106
8r	4a 4e 4A	4r	4.A
16cc#	.	.	.
16a	.	.	.
8ff#	4.r	4cc#	.
8ee	.	.	8A
8dd#	.	4b	8A
8ee	16g#	.	8G#
.	16e	.	.
=107	=107	=107	=107
8r	8a	4r	4.F#
16a	8A	.	.
16f#	.	.	.
8dd	4.r	4a	.
8cc#	.	.	8F#
8b#	.	4g#	8F#
8cc#	16e	.	8E
.	16c#	.	.
=108	=108	=108	=108
8r	8f#	4r	4.D
16ff#	8B	.	.
16dd	.	.	.
8bb	4.r	4f#	.
8aa	.	.	8D
8gg#	.	8B	8D
8aa	16ee	8c#	8C#
.	16cc#	.	.
=109	=109	=109	=109
8.ff#	8.a	8.d	4D
16dd	16b	16f#	.
4cc#	4a	2e	4E
4b	4g#	.	4EE
=110	=110	=110	=110
8.a	2.r	4r	4r
16g#	.	.	.
8f#	.	8c#	8A
8r	.	8r	8r
8e	.	8B	8G#
8r	.	8r	8r
=111	=111	=111	=111
8.f#	2.r	4r	4r
16e	.	.	.
8d	.	8A	8F#
8r	.	8r	8r
8c#	.	8G#	8E
8r	.	8r	8r
=112	=112	=112	=112
8.d	4r	4r	4r
16c#	.	.	.
8B	8G#	8E	8D
8r	8r	8r	8r
8A	8A	8E	8C#
8r	8r	8r	8r
=113	=113	=113	=113
4d	4B	4F#	4BB
4c#	4A	2E	2E
4B	4G#	.	.
=114	=114	=114	=114
16A	4A	4E	4AA
16c#	.	.	.
16e	.	.	.
16a	.	.	.
16cc#	4r	4r	8AA
16a	.	.	.
16ee	.	.	8C#
16cc#	.	.	.
16dd	4d	4B	8E
16b	.	.	.
16a	.	.	8EE
16g#	.	.	.
=115	=115	=115	=115
16a	4c#	4A	4AA
16cc#	.	.	.
16ee	.	.	.
16aa	.	.	.
16ccc#	4r	4r	8A
16aa	.	.	.
16eee	.	.	8c#
16ccc#	.	.	.
16ddd	4dd	4b	8e
16bb	.	.	.
16aa	.	.	8E
16gg#	.	.	.
=116	=116	=116	=116
8aa	8cc#	8a	8A
16cc#	16cc#	16cc#	16c#
32b	32b	32b	32B
32cc#	32cc#	32cc#	32c#
8dd	8dd	8dd	8d
8b	8b	8b	8B
8ee	8ee	8ee	8e
8e	8e	8e	8E
=117	=117	=117	=117
4a	4a	4a	4A
4A	4A	4A	4AA
4r	4r	4r	4r
==	==	==	==
*-	*-	*-	*-
!!!RWG1: This file contains only pitch and duration data.
!!!RWG2: Transposing instruments are not transposed.
!!!RWG3: Spines may have incompatible meters.
!!!RWG4: Durations of rests and tied notes may be interpreted.
!!!RWG: Key is interpreted using the Humdrum key tool.
!!!AFT: stage1
!!!END: 1997/04/15
!!format changes:
!!content changes:
!!public access: complete
!!!KEY: 2449913820
!!!EMD: Converted from MuseData to Humdrum Dec 16, 2000, by Andreas Kornstaedt using muse2kern.
